X:97
T:Streams of Nancy - Baker
C:Taken down from Matthew Baker July 1889, by H.Fl.S.
%%VWML:SBG-1-1-438-0
F:http://www.vwml.org/record/SBG/1/1/438
Z:Original Sibleius Transcription by Martin and Shan Graebe
L:1/8
M:3/8
I:linebreak $
K:Bb
z2 B/ F/ | B A G | G F F | F B B | B2 c/ c/ | d f d | c f c |$ A B G | F2 d/ c/ | B B G | 
F D F/ F/ | G A B | c2 d/ c/ | B A G |$ G F F/ F/ | F B c | d2 d/ c/ | B A G | G F F/ F/ | 
B B !fermata!c | !fermata!B2  |] 
T:Streams of Nancy - Olver
T:Taken down from James Olver May 1889 by F.W.B.
L:1/8
M:3/4
I:linebreak $
K:Bb
F2 | B2 d2 F3/2 E/ | E2 D2 B,3/2 D/ | F2 B2 cB | B4 A>B | c2 f3 e | d2 e>d cB | BA F2 (3GAG |$ 
F2 z2 A>B |: c2 f2 e/d/c3/4 d/4 | ed c2 B>A | B2 B2 F2 | (d2 f2) d>B |$ B2 c2 F/G/F/E/ | 
E2 D2 B,D | F2 B2 (3cdc |"""^1st" B4 ||"""^Ending" B8 |] 
T:Streams of Nancy - Ford
T:Taken down from Mat. Ford, Menheniot, Apl. 1891 by F.W.B.
L:1/4
M:3/4
I:linebreak $
K:Bb
F | B d F/E/ | E D B,/D/ | B B c | B2 A/B/ | c d f | c/d/ _e A/B/ | c F F | F2 B |:$ c d f | 
c/d/ e d/c/ | B B F | d f3/2 B/ | B B d/>F/ | E D B,/D/ | F B B | B2 z |] 
T:Streams of Nancy - Templer
T:Taken down by Miss Templer from singing of Harvesters in 1834.
L:1/4
M:6/4
I:linebreak $
K:C
"^[Time sig. given as 6/8, but written in 6/4 - Ed]" G/ | c e G/E/ F E C/E/ | 
G c d !fermata!c z B/c/ | d !fermata!g f/e/ d/e/ f e/ d/ | c G A G z B/c/ |$ 
d g f/e/ d/e/ f e/d/ | c G G (e g) f/d/ | c e G F E C/E/ | G c d c z z |] 


